public/img/logo.svg

<svg width="2467" height="438" fill="none" xmlns="http://www.w3.org/2000/svg"><g clip-path="url(#clip0)" fill="#16161D"><path d="M623.518 154.16h-59.611v162.166h-40.098V154.16H465v-32.486h158.518v32.486zM726.761 245.07h-31.944v71.256h-40.098V121.674h72.309c22.99 0 40.722 5.125 53.196 15.374 12.475 10.25 18.712 24.733 18.712 43.449 0 13.28-2.896 24.376-8.687 33.289-5.703 8.824-14.391 15.865-26.064 21.123l42.103 79.546v1.871H763.25l-36.489-71.256zm-31.944-32.487h32.345c10.069 0 17.866-2.54 23.39-7.62 5.525-5.17 8.287-12.255 8.287-21.257 0-9.18-2.629-16.399-7.886-21.658-5.168-5.258-13.143-7.888-23.925-7.888h-32.211v58.423zM985.047 121.674v128.208c0 21.302-6.683 38.147-20.049 50.535C951.722 312.806 933.544 319 910.466 319c-22.722 0-40.766-6.016-54.132-18.048-13.365-12.032-20.182-28.565-20.449-49.599V121.674h40.097V250.15c0 12.745 3.03 22.059 9.089 27.941 6.148 5.793 14.613 8.69 25.395 8.69 22.544 0 33.994-11.854 34.35-35.562V121.674h40.231zM1185.99 223.412c0 19.162-3.38 35.962-10.15 50.401-6.78 14.438-16.49 25.579-29.14 33.422-12.57 7.843-27 11.765-43.31 11.765-16.12 0-30.52-3.877-43.17-11.631-12.65-7.754-22.45-18.806-29.4-33.155-6.95-14.439-10.47-31.016-10.56-49.733v-9.625c0-19.163 3.43-36.008 10.29-50.535 6.95-14.617 16.71-25.802 29.27-33.556 12.65-7.843 27.09-11.765 43.31-11.765 16.21 0 30.6 3.922 43.17 11.765 12.65 7.754 22.41 18.939 29.27 33.556 6.95 14.527 10.42 31.328 10.42 50.401v8.69zm-40.63-8.824c0-20.41-3.65-35.918-10.96-46.524-7.3-10.606-17.73-15.909-31.27-15.909-13.46 0-23.84 5.259-31.15 15.775-7.3 10.428-11 25.758-11.09 45.99v9.492c0 19.875 3.65 35.294 10.96 46.256 7.31 10.963 17.82 16.444 31.54 16.444 13.46 0 23.79-5.258 31.01-15.775 7.22-10.606 10.87-26.025 10.96-46.257v-9.492zM1381.59 316.326h-40.09l-78.06-128.075v128.075h-40.1V121.674h40.1l78.19 128.342V121.674h39.96v194.652zM1578.8 291.727c-7.22 8.646-17.42 15.375-30.61 20.187-13.19 4.724-27.8 7.086-43.84 7.086-16.84 0-31.63-3.654-44.37-10.963-12.66-7.397-22.46-18.092-29.41-32.085-6.86-13.993-10.38-30.437-10.56-49.332v-13.235c0-19.43 3.26-36.23 9.76-50.401 6.59-14.26 16.04-25.134 28.34-32.62 12.38-7.576 26.86-11.364 43.43-11.364 23.08 0 41.13 5.526 54.14 16.578 13 10.962 20.71 26.96 23.12 47.994h-39.03c-1.78-11.141-5.75-19.296-11.9-24.465-6.05-5.169-14.43-7.754-25.12-7.754-13.64 0-24.02 5.125-31.15 15.374-7.12 10.25-10.73 25.49-10.82 45.722v12.433c0 20.41 3.87 35.829 11.63 46.257 7.75 10.428 19.11 15.642 34.08 15.642 15.06 0 25.8-3.209 32.21-9.626v-33.556h-36.49v-29.546h76.59v77.674zM1748.39 121.674l49.99 141.176 49.72-141.176h52.66v194.652h-40.23v-53.208l4.01-91.845-52.52 145.053h-27.54l-52.39-144.92 4.01 91.712v53.208H1696V121.674h52.39zM1986.63 316.326h-40.1V121.674h40.1v194.652zM2190.39 316.326h-40.1l-78.06-128.075v128.075h-40.1V121.674h40.1l78.19 128.342V121.674h39.97v194.652zM2392 316.326h-40.1v-83.422h-78.19v83.422h-40.09V121.674h40.09v78.877h78.19v-78.877h40.1v194.652zM172.637 108.502h25.916L81.643 393H54l118.637-284.498zM275.148 44h25.916L185.307 327.347h-28.22L275.148 44z"/><path d="M275.149 44h25.915l110.472 264.917L446.769 393H418.55L301.64 108.502h.014L275.149 44zM168.03 302.007h110.574v25.34H168.03zM172.637 108.502h25.916l17.444 41.831-13.114 31.773-30.246-73.604zM210.343 200.26l13.474 32.789 13.268-32.146-13.573-32.549-13.169 31.906z"/><path d="M231.278 251.203l13.322-32.278 45.212 108.422h-27.245l-31.289-76.144z"/></g><defs><clipPath id="clip0"><path fill="#fff" d="M0 0h2467v438H0z"/></clipPath></defs></svg>

<svg width="2467" height="438" viewBox="0 0 2467 438" fill="none" xmlns="http://www.w3.org/2000/svg">
<g clip-path="url(#clip0)">
<path d="M623.518 154.16H563.907V316.326H523.809V154.16H465V121.674H623.518V154.16Z" fill="#16161D"/>
<path d="M726.761 245.07H694.817V316.326H654.719V121.674H727.028C750.018 121.674 767.75 126.799 780.224 137.048C792.699 147.298 798.936 161.781 798.936 180.497C798.936 193.777 796.04 204.873 790.249 213.786C784.546 222.61 775.858 229.651 764.185 234.909L806.288 314.455V316.326H763.25L726.761 245.07ZM694.817 212.583H727.162C737.231 212.583 745.028 210.043 750.552 204.963C756.077 199.793 758.839 192.708 758.839 183.706C758.839 174.526 756.21 167.307 750.953 162.048C745.785 156.79 737.81 154.16 727.028 154.16H694.817V212.583Z" fill="#16161D"/>
<path d="M985.047 121.674V249.882C985.047 271.184 978.364 288.029 964.998 300.417C951.722 312.806 933.544 319 910.466 319C887.744 319 869.7 312.984 856.334 300.952C842.969 288.92 836.152 272.387 835.885 251.353V121.674H875.982V250.15C875.982 262.895 879.012 272.209 885.071 278.091C891.219 283.884 899.684 286.781 910.466 286.781C933.01 286.781 944.46 274.927 944.816 251.219V121.674H985.047Z" fill="#16161D"/>
<path d="M1185.99 223.412C1185.99 242.574 1182.61 259.374 1175.84 273.813C1169.06 288.251 1159.35 299.392 1146.7 307.235C1134.13 315.078 1119.7 319 1103.39 319C1087.27 319 1072.87 315.123 1060.22 307.369C1047.57 299.615 1037.77 288.563 1030.82 274.214C1023.87 259.775 1020.35 243.198 1020.26 224.481V214.856C1020.26 195.693 1023.69 178.848 1030.55 164.321C1037.5 149.704 1047.26 138.519 1059.82 130.765C1072.47 122.922 1086.91 119 1103.13 119C1119.34 119 1133.73 122.922 1146.3 130.765C1158.95 138.519 1168.71 149.704 1175.57 164.321C1182.52 178.848 1185.99 195.649 1185.99 214.722V223.412ZM1145.36 214.588C1145.36 194.178 1141.71 178.67 1134.4 168.064C1127.1 157.458 1116.67 152.155 1103.13 152.155C1089.67 152.155 1079.29 157.414 1071.98 167.93C1064.68 178.358 1060.98 193.688 1060.89 213.92V223.412C1060.89 243.287 1064.54 258.706 1071.85 269.668C1079.16 280.631 1089.67 286.112 1103.39 286.112C1116.85 286.112 1127.18 280.854 1134.4 270.337C1141.62 259.731 1145.27 244.312 1145.36 224.08V214.588Z" fill="#16161D"/>
<path d="M1381.59 316.326H1341.5L1263.44 188.251V316.326H1223.34V121.674H1263.44L1341.63 250.016V121.674H1381.59V316.326Z" fill="#16161D"/>
<path d="M1578.8 291.727C1571.58 300.373 1561.38 307.102 1548.19 311.914C1535 316.638 1520.39 319 1504.35 319C1487.51 319 1472.72 315.346 1459.98 308.037C1447.32 300.64 1437.52 289.945 1430.57 275.952C1423.71 261.959 1420.19 245.515 1420.01 226.62V213.385C1420.01 193.955 1423.27 177.155 1429.77 162.984C1436.36 148.724 1445.81 137.85 1458.11 130.364C1470.49 122.788 1484.97 119 1501.54 119C1524.62 119 1542.67 124.526 1555.68 135.578C1568.68 146.54 1576.39 162.538 1578.8 183.572H1539.77C1537.99 172.431 1534.02 164.276 1527.87 159.107C1521.82 153.938 1513.44 151.353 1502.75 151.353C1489.11 151.353 1478.73 156.478 1471.6 166.727C1464.48 176.977 1460.87 192.217 1460.78 212.449V224.882C1460.78 245.292 1464.65 260.711 1472.41 271.139C1480.16 281.567 1491.52 286.781 1506.49 286.781C1521.55 286.781 1532.29 283.572 1538.7 277.155V243.599H1502.21V214.053H1578.8V291.727Z" fill="#16161D"/>
<path d="M1748.39 121.674L1798.38 262.85L1848.1 121.674H1900.76V316.326H1860.53V263.118L1864.54 171.273L1812.02 316.326H1784.48L1732.09 171.406L1736.1 263.118V316.326H1696V121.674H1748.39Z" fill="#16161D"/>
<path d="M1986.63 316.326H1946.53V121.674H1986.63V316.326Z" fill="#16161D"/>
<path d="M2190.39 316.326H2150.29L2072.23 188.251V316.326H2032.13V121.674H2072.23L2150.42 250.016V121.674H2190.39V316.326Z" fill="#16161D"/>
<path d="M2392 316.326H2351.9V232.904H2273.71V316.326H2233.62V121.674H2273.71V200.551H2351.9V121.674H2392V316.326Z" fill="#16161D"/>
<path d="M172.637 108.502H198.553L81.6436 393H54L172.637 108.502Z" fill="#16161D"/>
<path d="M275.148 44H301.064L185.307 327.347H157.087L275.148 44Z" fill="#16161D"/>
<path d="M275.149 44H301.064L411.536 308.917L446.769 393H418.55L301.64 108.502H301.654L275.149 44Z" fill="#16161D"/>
<rect x="168.03" y="302.007" width="110.574" height="25.3399" fill="#16161D"/>
<path d="M172.637 108.502H198.553L215.997 150.333L202.883 182.106L172.637 108.502Z" fill="#16161D"/>
<path d="M210.343 200.26L223.817 233.049L237.085 200.903L223.512 168.354L210.343 200.26Z" fill="#16161D"/>
<path d="M231.278 251.203L244.6 218.925L289.812 327.347H262.567L231.278 251.203Z" fill="#16161D"/>
</g>
<defs>
<clipPath id="clip0">
<rect width="2467" height="438" fill="white"/>
</clipPath>
</defs>
</svg>
